Newaita-dark/apps/48/0ad.svg

<svg height="48pt" viewBox="0 0 48 48" width="48pt" xmlns="http://www.w3.org/2000/svg" xmlns:xlink="http://www.w3.org/1999/xlink"><linearGradient id="a"><stop offset="0" stop-opacity=".313725"/><stop offset=".222222" stop-opacity=".27451"/><stop offset="1" stop-opacity="0"/></linearGradient><radialGradient id="b" cx="450.908936" cy="189.579361" gradientTransform="matrix(.00000026 -.117199 -.210958 -.00000015 66.784728 95.392994)" gradientUnits="userSpaceOnUse" r="21.166656" xlink:href="#a"/><radialGradient id="c" cx="450.908936" cy="189.579361" gradientTransform="matrix(-.00000026 .117199 .210958 .00000015 -19.155178 -11.291223)" gradientUnits="userSpaceOnUse" r="21.166656" xlink:href="#a"/><radialGradient id="d" cx="450.908936" cy="189.579361" gradientTransform="matrix(-.00000026 -.117199 .210958 -.00000015 -19.155178 95.392994)" gradientUnits="userSpaceOnUse" r="21.166656" xlink:href="#a"/><radialGradient id="e" cx="450.908936" cy="189.579361" gradientTransform="matrix(.00000026 .117199 -.210958 .00000015 66.784725 -11.291224)" gradientUnits="userSpaceOnUse" r="21.166656" xlink:href="#a"/><linearGradient id="f" gradientTransform="matrix(.0200401 0 0 .093759 18.698079 20.158175)" gradientUnits="userSpaceOnUse" x1="255.323059" x2="255.323044" y1="233.5" y2="254.666656"><stop offset="0" stop-opacity=".27451"/><stop offset="1" stop-opacity="0"/></linearGradient><linearGradient id="g" gradientUnits="userSpaceOnUse" x1="254" x2="254" y1="201.75" y2="-126.333344"><stop offset="0" stop-color="#ffee58"/><stop offset="1" stop-color="#fff176"/></linearGradient><linearGradient id="h" gradientUnits="userSpaceOnUse" x1="23.814786" x2="23.814786" y1="4.34415449995" y2="42.0508995"><stop offset="0" stop-color="#a1887f"/><stop offset="1" stop-color="#8d6e63"/></linearGradient><path d="m27.289062 42.050781h3.96875v-1.984375h-3.96875zm0 0" fill="url(#b)"/><path d="m20.339844 42.050781h-3.96875v1.984375h3.96875zm0 0" fill="url(#c)"/><path d="m20.339844 42.050781h-3.96875v-1.984375h3.96875zm0 0" fill="url(#d)"/><path d="m27.289062 42.050781h3.96875v1.984375h-3.96875zm0 0" fill="url(#e)"/><path d="m20.339844 41.554688h6.949218v2.480468h-6.949218zm0 0" fill="url(#f)"/><path d="m254.017409-136.924123c-93.366084 0-168.48391 75.15949-168.48391 168.483911s75.117826 168.442248 168.48391 168.442248c93.324422 0 168.442248-75.117827 168.442248-168.442248s-75.117826-168.483911-168.442248-168.483911zm0 0" fill="url(#g)" stroke="#212121" stroke-linecap="round" stroke-width="2.513416" transform="matrix(.093759 0 0 .093759 0 20.158175)"/><path d="m23.816406 4.34375c-10.445312 0-18.855468 8.410156-18.855468 18.855469 0 10.441406 8.410156 18.851562 18.855468 18.851562 10.441406 0 18.851563-8.410156 18.851563-18.851562 0-10.445313-8.410157-18.855469-18.851563-18.855469zm-1.984375 4.101562v12.769532h-12.691406c.84375-6.644532 6.058594-11.886719 12.691406-12.769532zm3.96875 0c6.628907.882813 11.84375 6.125 12.6875 12.769532h-12.6875zm-16.632812 16.738282h12.664062v12.582031c-6.570312-.875-11.75-6.027344-12.664062-12.582031zm16.632812 0h12.664063c-.914063 6.554687-6.097656 11.707031-12.664063 12.582031zm0 0" fill="url(#h)"/><path d="m23.816406 4.34375c-10.445312 0-18.855468 8.410156-18.855468 18.855469v.183593c.101562-10.359374 8.472656-18.667968 18.855468-18.667968 10.382813 0 18.75 8.308594 18.851563 18.667968 0-.0625 0-.125 0-.183593 0-10.445313-8.410157-18.855469-18.851563-18.855469zm-14.621094 16.871094c-.019531.121094-.039062.246094-.054687.371094h12.691406v-.371094zm16.605469 0v.371094h12.6875c-.015625-.125-.035156-.25-.054687-.371094zm-16.632812 4.339844c.914062 6.554687 6.09375 11.710937 12.664062 12.582031v-.371094c-6.445312-.855469-11.554687-5.832031-12.609375-12.210937zm29.238281 0c-1.054688 6.378906-6.164062 11.355468-12.605469 12.210937v.371094c6.566407-.871094 11.75-6.027344 12.664063-12.582031zm0 0" fill="#fff" fill-opacity=".392157"/><path d="m21.832031 8.015625c-6.632812.882813-11.847656 6.125-12.691406 12.769531h.0625c1.003906-6.441406 6.140625-11.476562 12.628906-12.339844zm3.96875 0v.429687c6.488281.863282 11.621094 5.898438 12.625 12.339844h.0625c-.84375-6.644531-6.058593-11.886718-12.6875-12.769531zm-20.839843 14.96875v.214844c0 10.441406 8.410156 18.851562 18.855468 18.851562 10.441406 0 18.851563-8.410156 18.851563-18.851562 0-.074219 0-.144531 0-.214844-.113281 10.34375-8.480469 18.640625-18.851563 18.640625-10.375 0-18.738281-8.296875-18.855468-18.640625zm4.207031 1.769531c.019531.144532.039062.285156.066406.429688h12.597656v-.429688zm16.632812 0v.429688h12.597657c.023437-.144532.042968-.285156.066406-.429688zm0 0" fill-opacity=".235294"/><g fill="#212121"><path d="m23.816406 4.203125c-10.523437 0-18.996094 8.472656-18.996094 18.996094 0 10.519531 8.472657 18.992187 18.996094 18.992187 10.519532 0 18.992188-8.472656 18.992188-18.992187 0-10.523438-8.472656-18.996094-18.992188-18.996094zm0 .28125c10.367188 0 18.710938 8.34375 18.710938 18.714844 0 10.367187-8.34375 18.710937-18.710938 18.710937-10.371094 0-18.714844-8.34375-18.714844-18.710937 0-10.371094 8.34375-18.714844 18.714844-18.714844zm0 0"/><path d="m23.816406 4.203125c-10.523437 0-18.996094 8.472656-18.996094 18.996094 0 10.519531 8.472657 18.992187 18.996094 18.992187 10.519532 0 18.992188-8.472656 18.992188-18.992187 0-10.523438-8.472656-18.996094-18.992188-18.996094zm0 .28125c10.367188 0 18.710938 8.34375 18.710938 18.714844 0 10.367187-8.34375 18.710937-18.710938 18.710937-10.371094 0-18.714844-8.34375-18.714844-18.710937 0-10.371094 8.34375-18.714844 18.714844-18.714844zm-1.84375 3.800781-.160156.019532c-6.695312.890624-11.960938 6.183593-12.808594 12.890624l-.019531.160157h12.988281zm3.6875 0v13.070313h12.988282l-.019532-.160157c-.851562-6.707031-6.117187-12-12.8125-12.890624zm-3.96875.324219v12.464844h-12.386718c.886718-6.453125 5.945312-11.539063 12.386718-12.464844zm4.25 0c6.4375.925781 11.496094 6.011719 12.382813 12.464844h-12.382813zm-16.9375 16.433594.023438.160156c.921875 6.617187 6.152344 11.820313 12.785156 12.703125l.160156.019531v-12.882812zm16.65625 0v12.882812l.15625-.019531c6.632813-.882812 11.863282-6.085938 12.785156-12.703125l.023438-.160156zm-16.328125.28125h12.359375v12.277343c-6.378906-.917968-11.402344-5.914062-12.359375-12.277343zm16.609375 0h12.355469c-.957031 6.363281-5.980469 11.359375-12.355469 12.277343zm0 0"/></g></svg>

<?xml version="1.0" encoding="UTF-8"?>
<svg xmlns="http://www.w3.org/2000/svg" xmlns:xlink="http://www.w3.org/1999/xlink" width="48pt" height="48pt" viewBox="0 0 48 48" version="1.1">
<defs>
<radialGradient id="radial0" gradientUnits="userSpaceOnUse" cx="450.908936" cy="189.579361" fx="450.908936" fy="189.579361" r="21.166656" gradientTransform="matrix(0.000000261256,-0.117199,-0.210958,-0.000000152308,66.784728,95.392994)">
<stop offset="0" style="stop-color:rgb(0%,0%,0%);stop-opacity:0.313725;"/>
<stop offset="0.222222" style="stop-color:rgb(0%,0%,0%);stop-opacity:0.27451;"/>
<stop offset="1" style="stop-color:rgb(0%,0%,0%);stop-opacity:0;"/>
</radialGradient>
<radialGradient id="radial1" gradientUnits="userSpaceOnUse" cx="450.908936" cy="189.579361" fx="450.908936" fy="189.579361" r="21.166656" gradientTransform="matrix(-0.000000261256,0.117199,0.210958,0.000000152308,-19.155178,-11.291223)">
<stop offset="0" style="stop-color:rgb(0%,0%,0%);stop-opacity:0.313725;"/>
<stop offset="0.222222" style="stop-color:rgb(0%,0%,0%);stop-opacity:0.27451;"/>
<stop offset="1" style="stop-color:rgb(0%,0%,0%);stop-opacity:0;"/>
</radialGradient>
<radialGradient id="radial2" gradientUnits="userSpaceOnUse" cx="450.908936" cy="189.579361" fx="450.908936" fy="189.579361" r="21.166656" gradientTransform="matrix(-0.000000261256,-0.117199,0.210958,-0.000000152308,-19.155178,95.392994)">
<stop offset="0" style="stop-color:rgb(0%,0%,0%);stop-opacity:0.313725;"/>
<stop offset="0.222222" style="stop-color:rgb(0%,0%,0%);stop-opacity:0.27451;"/>
<stop offset="1" style="stop-color:rgb(0%,0%,0%);stop-opacity:0;"/>
</radialGradient>
<radialGradient id="radial3" gradientUnits="userSpaceOnUse" cx="450.908936" cy="189.579361" fx="450.908936" fy="189.579361" r="21.166656" gradientTransform="matrix(0.000000261256,0.117199,-0.210958,0.000000152308,66.784725,-11.291224)">
<stop offset="0" style="stop-color:rgb(0%,0%,0%);stop-opacity:0.313725;"/>
<stop offset="0.222222" style="stop-color:rgb(0%,0%,0%);stop-opacity:0.27451;"/>
<stop offset="1" style="stop-color:rgb(0%,0%,0%);stop-opacity:0;"/>
</radialGradient>
<linearGradient id="linear0" gradientUnits="userSpaceOnUse" x1="255.323059" y1="233.5" x2="255.323044" y2="254.666656" gradientTransform="matrix(0.0200401,0,0,0.093759,18.698079,20.158175)">
<stop offset="0" style="stop-color:rgb(0%,0%,0%);stop-opacity:0.27451;"/>
<stop offset="1" style="stop-color:rgb(0%,0%,0%);stop-opacity:0;"/>
</linearGradient>
<linearGradient id="linear1" gradientUnits="userSpaceOnUse" x1="254" y1="201.75" x2="254" y2="-126.333344" gradientTransform="matrix(1,0,0,1,0,0)">
<stop offset="0" style="stop-color:rgb(100%,93.333333%,34.509804%);stop-opacity:1;"/>
<stop offset="1" style="stop-color:rgb(100%,94.509804%,46.27451%);stop-opacity:1;"/>
</linearGradient>
<linearGradient id="linear2" gradientUnits="userSpaceOnUse" x1="254" y1="-168.666672" x2="254" y2="233.5" gradientTransform="matrix(0.093759,0,0,0.093759,0,20.158173)">
<stop offset="0" style="stop-color:rgb(63.137255%,53.333333%,49.803922%);stop-opacity:1;"/>
<stop offset="1" style="stop-color:rgb(55.294118%,43.137255%,38.823529%);stop-opacity:1;"/>
</linearGradient>
</defs>
<g id="surface1">
<path style=" stroke:none;fill-rule:nonzero;fill:url(#radial0);" d="M 27.289062 42.050781 L 31.257812 42.050781 L 31.257812 40.066406 L 27.289062 40.066406 Z M 27.289062 42.050781 "/>
<path style=" stroke:none;fill-rule:nonzero;fill:url(#radial1);" d="M 20.339844 42.050781 L 16.371094 42.050781 L 16.371094 44.035156 L 20.339844 44.035156 Z M 20.339844 42.050781 "/>
<path style=" stroke:none;fill-rule:nonzero;fill:url(#radial2);" d="M 20.339844 42.050781 L 16.371094 42.050781 L 16.371094 40.066406 L 20.339844 40.066406 Z M 20.339844 42.050781 "/>
<path style=" stroke:none;fill-rule:nonzero;fill:url(#radial3);" d="M 27.289062 42.050781 L 31.257812 42.050781 L 31.257812 44.035156 L 27.289062 44.035156 Z M 27.289062 42.050781 "/>
<path style=" stroke:none;fill-rule:nonzero;fill:url(#linear0);" d="M 20.339844 41.554688 L 27.289062 41.554688 L 27.289062 44.035156 L 20.339844 44.035156 Z M 20.339844 41.554688 "/>
<path style="fill-rule:nonzero;fill:url(#linear1);stroke-width:2.513416;stroke-linecap:round;stroke-linejoin:miter;stroke:rgb(12.941177%,12.941177%,12.941177%);stroke-opacity:1;stroke-miterlimit:4;" d="M 254.017409 -136.924123 C 160.651325 -136.924123 85.533499 -61.764633 85.533499 31.559788 C 85.533499 124.884209 160.651325 200.002036 254.017409 200.002036 C 347.341831 200.002036 422.459657 124.884209 422.459657 31.559788 C 422.459657 -61.764633 347.341831 -136.924123 254.017409 -136.924123 Z M 254.017409 -136.924123 " transform="matrix(0.093759,0,0,0.093759,0,20.158175)"/>
<path style=" stroke:none;fill-rule:nonzero;fill:url(#linear2);" d="M 23.816406 4.34375 C 13.371094 4.34375 4.960938 12.753906 4.960938 23.199219 C 4.960938 33.640625 13.371094 42.050781 23.816406 42.050781 C 34.257812 42.050781 42.667969 33.640625 42.667969 23.199219 C 42.667969 12.753906 34.257812 4.34375 23.816406 4.34375 Z M 21.832031 8.445312 L 21.832031 21.214844 L 9.140625 21.214844 C 9.984375 14.570312 15.199219 9.328125 21.832031 8.445312 Z M 25.800781 8.445312 C 32.429688 9.328125 37.644531 14.570312 38.488281 21.214844 L 25.800781 21.214844 Z M 9.167969 25.183594 L 21.832031 25.183594 L 21.832031 37.765625 C 15.261719 36.890625 10.082031 31.738281 9.167969 25.183594 Z M 25.800781 25.183594 L 38.464844 25.183594 C 37.550781 31.738281 32.367188 36.890625 25.800781 37.765625 Z M 25.800781 25.183594 "/>
<path style=" stroke:none;fill-rule:nonzero;fill:rgb(100%,100%,100%);fill-opacity:0.392157;" d="M 23.816406 4.34375 C 13.371094 4.34375 4.960938 12.753906 4.960938 23.199219 C 4.960938 23.257812 4.960938 23.320312 4.960938 23.382812 C 5.0625 13.023438 13.433594 4.714844 23.816406 4.714844 C 34.199219 4.714844 42.566406 13.023438 42.667969 23.382812 C 42.667969 23.320312 42.667969 23.257812 42.667969 23.199219 C 42.667969 12.753906 34.257812 4.34375 23.816406 4.34375 Z M 9.195312 21.214844 C 9.175781 21.335938 9.15625 21.460938 9.140625 21.585938 L 21.832031 21.585938 L 21.832031 21.214844 Z M 25.800781 21.214844 L 25.800781 21.585938 L 38.488281 21.585938 C 38.472656 21.460938 38.453125 21.335938 38.433594 21.214844 Z M 9.167969 25.554688 C 10.082031 32.109375 15.261719 37.265625 21.832031 38.136719 L 21.832031 37.765625 C 15.386719 36.910156 10.277344 31.933594 9.222656 25.554688 Z M 38.40625 25.554688 C 37.351562 31.933594 32.242188 36.910156 25.800781 37.765625 L 25.800781 38.136719 C 32.367188 37.265625 37.550781 32.109375 38.464844 25.554688 Z M 38.40625 25.554688 "/>
<path style=" stroke:none;fill-rule:nonzero;fill:rgb(0%,0%,0%);fill-opacity:0.235294;" d="M 21.832031 8.015625 C 15.199219 8.898438 9.984375 14.140625 9.140625 20.785156 L 9.203125 20.785156 C 10.207031 14.34375 15.34375 9.308594 21.832031 8.445312 Z M 25.800781 8.015625 L 25.800781 8.445312 C 32.289062 9.308594 37.421875 14.34375 38.425781 20.785156 L 38.488281 20.785156 C 37.644531 14.140625 32.429688 8.898438 25.800781 8.015625 Z M 4.960938 22.984375 C 4.960938 23.054688 4.960938 23.125 4.960938 23.199219 C 4.960938 33.640625 13.371094 42.050781 23.816406 42.050781 C 34.257812 42.050781 42.667969 33.640625 42.667969 23.199219 C 42.667969 23.125 42.667969 23.054688 42.667969 22.984375 C 42.554688 33.328125 34.1875 41.625 23.816406 41.625 C 13.441406 41.625 5.078125 33.328125 4.960938 22.984375 Z M 9.167969 24.753906 C 9.1875 24.898438 9.207031 25.039062 9.234375 25.183594 L 21.832031 25.183594 L 21.832031 24.753906 Z M 25.800781 24.753906 L 25.800781 25.183594 L 38.398438 25.183594 C 38.421875 25.039062 38.441406 24.898438 38.464844 24.753906 Z M 25.800781 24.753906 "/>
<path style=" stroke:none;fill-rule:nonzero;fill:rgb(12.941177%,12.941177%,12.941177%);fill-opacity:1;" d="M 23.816406 4.203125 C 13.292969 4.203125 4.820312 12.675781 4.820312 23.199219 C 4.820312 33.71875 13.292969 42.191406 23.816406 42.191406 C 34.335938 42.191406 42.808594 33.71875 42.808594 23.199219 C 42.808594 12.675781 34.335938 4.203125 23.816406 4.203125 Z M 23.816406 4.484375 C 34.183594 4.484375 42.527344 12.828125 42.527344 23.199219 C 42.527344 33.566406 34.183594 41.910156 23.816406 41.910156 C 13.445312 41.910156 5.101562 33.566406 5.101562 23.199219 C 5.101562 12.828125 13.445312 4.484375 23.816406 4.484375 Z M 23.816406 4.484375 "/>
<path style=" stroke:none;fill-rule:nonzero;fill:rgb(12.941177%,12.941177%,12.941177%);fill-opacity:1;" d="M 23.816406 4.203125 C 13.292969 4.203125 4.820312 12.675781 4.820312 23.199219 C 4.820312 33.71875 13.292969 42.191406 23.816406 42.191406 C 34.335938 42.191406 42.808594 33.71875 42.808594 23.199219 C 42.808594 12.675781 34.335938 4.203125 23.816406 4.203125 Z M 23.816406 4.484375 C 34.183594 4.484375 42.527344 12.828125 42.527344 23.199219 C 42.527344 33.566406 34.183594 41.910156 23.816406 41.910156 C 13.445312 41.910156 5.101562 33.566406 5.101562 23.199219 C 5.101562 12.828125 13.445312 4.484375 23.816406 4.484375 Z M 21.972656 8.285156 L 21.8125 8.304688 C 15.117188 9.195312 9.851562 14.488281 9.003906 21.195312 L 8.984375 21.355469 L 21.972656 21.355469 Z M 25.660156 8.285156 L 25.660156 21.355469 L 38.648438 21.355469 L 38.628906 21.195312 C 37.777344 14.488281 32.511719 9.195312 25.816406 8.304688 Z M 21.691406 8.609375 L 21.691406 21.074219 L 9.304688 21.074219 C 10.191406 14.621094 15.25 9.535156 21.691406 8.609375 Z M 25.941406 8.609375 C 32.378906 9.535156 37.4375 14.621094 38.324219 21.074219 L 25.941406 21.074219 Z M 9.003906 25.042969 L 9.027344 25.203125 C 9.949219 31.820312 15.179688 37.023438 21.8125 37.90625 L 21.972656 37.925781 L 21.972656 25.042969 Z M 25.660156 25.042969 L 25.660156 37.925781 L 25.816406 37.90625 C 32.449219 37.023438 37.679688 31.820312 38.601562 25.203125 L 38.625 25.042969 Z M 9.332031 25.324219 L 21.691406 25.324219 L 21.691406 37.601562 C 15.3125 36.683594 10.289062 31.6875 9.332031 25.324219 Z M 25.941406 25.324219 L 38.296875 25.324219 C 37.339844 31.6875 32.316406 36.683594 25.941406 37.601562 Z M 25.941406 25.324219 "/>
</g>
</svg>
